assets/themes/plage/hud_border.svg

<svg xmlns="http://www.w3.org/2000/svg" height="20" opacity=".9" viewBox="0 0 400 20"><defs><linearGradient id="a" x1="0" x2="0" y1="0" y2="1"><stop offset="0%" stop-color="#f5d98a"/><stop offset="100%" stop-color="#c8922a"/></linearGradient><linearGradient id="b" x1="0" x2="0" y1="0" y2="1"><stop offset="0%" stop-color="#00bcd4" stop-opacity=".85"/><stop offset="100%" stop-color="#006080"/></linearGradient><filter id="c" width="140%" height="140%" x="-20%" y="-20%"><feDropShadow dx="0" dy="0" flood-color="#00e5cc" flood-opacity=".7" stdDeviation="1.5"/></filter><filter id="e" width="160%" height="160%" x="-30%" y="-30%"><feDropShadow dx="0" dy="0" flood-color="#f90" flood-opacity=".6" stdDeviation="2"/></filter><g id="d" stroke="#c8822a"><ellipse fill="#f5c5a0" stroke-width=".5" rx="4" ry="2.5"/><path stroke-width=".4" d="M-3.5 0h7" opacity=".7"/><path stroke-width=".3" d="M-2.5-1.2h5m-5 2.4h5" opacity=".5"/></g><g id="g"><path fill="#8b5a2b" stroke="#5c3800" stroke-width=".4" d="M0 0q1-4 0-10-1 6 0 10"/><path fill="none" stroke="#2a0" stroke-linecap="round" stroke-width="1.5" d="M0-10q-8-4-10-2m10 2q-4-6-2-5"/><path fill="none" stroke="#2acc00" stroke-linecap="round" stroke-width="1.5" d="M0-10q8-4 10-2M0-10q4-6 2-5"/><path fill="none" stroke="#3b0" stroke-linecap="round" stroke-width="1.2" d="M0-10q0-6 1-5"/></g></defs><path fill="url(#a)" d="M0 13h400v7H0z"/><path fill="url(#b)" d="M0 13c20-5 40 1 60-3s40 3 60 0 40 3 60 0 40 3 60 0 40 3 60 0 40 3 60 0 40 3 40 2v2H0Z" filter="url(#c)"/><path fill="none" stroke="#fff" stroke-width=".6" d="M0 13c20-5 40 1 60-3s40 3 60 0 40 3 60 0 40 3 60 0 40 3 60 0 40 3 60 0 40 3 40 2" opacity=".5"/><use href="#d" transform="translate(22 16)"/><use href="#d" transform="rotate(25 -4.713 154.848)"/><use href="#d" transform="rotate(-15 115.766 -409.766)"/><use href="#d" transform="translate(155 16.5)"/><use href="#d" transform="rotate(20 54.63 575.128)"/><use href="#d" transform="rotate(-10 215.798 -1380.501)"/><use href="#d" transform="translate(288 16)"/><use href="#d" transform="rotate(15 103.835 1272.943)"/><use href="#d" transform="rotate(-20 233.37 -1058.201)"/><use filter="url(#e)" href="#g" transform="translate(50 20)"/><use filter="url(#e)" href="#g" transform="translate(200 20)"/><use filter="url(#e)" href="#g" transform="translate(350 20)"/></svg>

<svg xmlns="http://www.w3.org/2000/svg" viewBox="0 0 400 20" width="100%" height="20" opacity="0.90">
  <defs>
    <filter id="pglow" x="-20%" y="-20%" width="140%" height="140%">
      <feDropShadow dx="0" dy="0" stdDeviation="1.5" flood-color="#00e5cc" flood-opacity="0.7"/>
    </filter>
    <filter id="sunglow" x="-30%" y="-30%" width="160%" height="160%">
      <feDropShadow dx="0" dy="0" stdDeviation="2" flood-color="#ff9900" flood-opacity="0.6"/>
    </filter>
    <linearGradient id="sand2" x1="0" y1="0" x2="0" y2="1">
      <stop offset="0%" stop-color="#f5d98a"/>
      <stop offset="100%" stop-color="#c8922a"/>
    </linearGradient>
    <linearGradient id="sea" x1="0" y1="0" x2="0" y2="1">
      <stop offset="0%" stop-color="#00bcd4" stop-opacity="0.85"/>
      <stop offset="100%" stop-color="#006080" stop-opacity="1"/>
    </linearGradient>

    <!-- Shell: small stylized bivalve -->
    <g id="shell">
      <ellipse cx="0" cy="0" rx="4" ry="2.5" fill="#f5c5a0" stroke="#c8822a" stroke-width="0.5"/>
      <!-- ridges -->
      <line x1="-3.5" y1="0" x2="3.5" y2="0"  stroke="#c8822a" stroke-width="0.4" opacity="0.7"/>
      <line x1="-2.5" y1="-1.2" x2="2.5" y2="-1.2" stroke="#c8822a" stroke-width="0.3" opacity="0.5"/>
      <line x1="-2.5" y1="1.2"  x2="2.5" y2="1.2"  stroke="#c8822a" stroke-width="0.3" opacity="0.5"/>
    </g>

    <!-- Palm tree: small silhouette -->
    <g id="palm">
      <!-- trunk -->
      <path d="M0,0 Q1,-4 0,-10 Q-1,-4 0,0" fill="#8B5A2B" stroke="#5c3800" stroke-width="0.4"/>
      <!-- leaves -->
      <path d="M0,-10 Q-8,-14 -10,-12" stroke="#22aa00" stroke-width="1.5" fill="none" stroke-linecap="round"/>
      <path d="M0,-10 Q-4,-16 -2,-15" stroke="#22aa00" stroke-width="1.5" fill="none" stroke-linecap="round"/>
      <path d="M0,-10 Q8,-14 10,-12"  stroke="#2acc00" stroke-width="1.5" fill="none" stroke-linecap="round"/>
      <path d="M0,-10 Q4,-16 2,-15"   stroke="#2acc00" stroke-width="1.5" fill="none" stroke-linecap="round"/>
      <path d="M0,-10 Q0,-16 1,-15"   stroke="#33bb00" stroke-width="1.2" fill="none" stroke-linecap="round"/>
    </g>
  </defs>

  <!-- Sand base -->
  <rect x="0" y="13" width="400" height="7" fill="url(#sand2)"/>

  <!-- Wave on top of sand -->
  <path d="M0,13 C20,8 40,14 60,10 C80,6 100,13 120,10 C140,7 160,13 180,10 C200,7 220,13 240,10 C260,7 280,13 300,10 C320,7 340,13 360,10 C380,7 400,13 400,12 L400,14 L0,14 Z"
        fill="url(#sea)" filter="url(#pglow)"/>
  <!-- Wave highlight -->
  <path d="M0,13 C20,8 40,14 60,10 C80,6 100,13 120,10 C140,7 160,13 180,10 C200,7 220,13 240,10 C260,7 280,13 300,10 C320,7 340,13 360,10 C380,7 400,13 400,12"
        fill="none" stroke="#ffffff" stroke-width="0.6" opacity="0.5"/>

  <!-- Shells on beach (y~16 = on sand surface) -->
  <use href="#shell" transform="translate(22,16)"/>
  <use href="#shell" transform="translate(65,16.5) rotate(25)"/>
  <use href="#shell" transform="translate(110,16) rotate(-15)"/>
  <use href="#shell" transform="translate(155,16.5)"/>
  <use href="#shell" transform="translate(200,16) rotate(20)"/>
  <use href="#shell" transform="translate(243,16.5) rotate(-10)"/>
  <use href="#shell" transform="translate(288,16)"/>
  <use href="#shell" transform="translate(333,16.5) rotate(15)"/>
  <use href="#shell" transform="translate(376,16) rotate(-20)"/>

  <!-- 3 palm trees (positioned above ground) -->
  <use href="#palm" transform="translate(50,20)" filter="url(#sunglow)"/>
  <use href="#palm" transform="translate(200,20)" filter="url(#sunglow)"/>
  <use href="#palm" transform="translate(350,20)" filter="url(#sunglow)"/>
</svg>
